X: 1622
T: Rûhuma Sunduğun Mukaddes Günah
C: Sadettin Kaynak
O: Turkey
F: http://compmusic.upf.edu/node/140
N: beyati--sarki--sofyan--ruhuma_sundugun--sadettin_kaynak
N: makam= beyati
N: form= sarki
N: usul= sofyan = 4/4
M: 4/4
L: 1/16
K: C _2/4B   
Q: 1/4=90
%%MIDI tuningsystem comma53
z2c4d2 d4 d4  | e2f2 e2f2 d4 z4  | e2f4g4a4g4f4e4d4c2  | \
w:   |   |   | 
d4 d2d4e4e3dc2 d2c4_1/4B4z2  | 
w:   | 
g2^f2 g2f2 e2d2 c2d6 A2=f3ed4z2  | \
w:   | 
f2e2 d2c2 _1/4B2A4z2  | g4 a2a4a4e2  | 
w:   |   | 
f6g4a4g2  | f2e2 d2_7/8e3dc4z2  | f4 f2f2 _7/8e2e2 d2d2  | \
w:   |   |   | 
_7/8e2d2 g2g^f edc2 _1/4B2z2  | 
w:   | 
c2_1/4B2 c2B3AA4A6 d2e2 ^c2d4z2  | \
w:   | 
d4 d2d8^c2  | d2^c2 d2_1/4B4z4f4e4d4c4d6 e2=c2 d2e4d2  | 
w:   |   | 
e6e4e4e2  | f6f4z4z2  | e2^f2 g2f3ed2 e2e6 g2=f2 e2f4z2  | 
w:   |   |   | 
f2e2 d2c2 _1/4B2A4z2  | g4 a2a4a4e2  | \
w:   |   | 
f6g4a4g2  | f2e2 d2_7/8e3dc4z2  | 
w:   |   | 
f4 f2f2 e2d2 c2z2  | _7/8e2d2 g2g^f edc2 _1/4B2z2  | \
w:   |   | 
c2_1/4B2 c2B3AA4A6 ^fga2 z2g2 a4  | 
w:   | 
a6a4c'2 _1/4b2a2  | g2c'2 _1/4b2c'2 b2a2 g2a6 de^fg a2g4g2  | \
w:   |   | 
g4 z2_b2 a2g2 f2e2  | 
w:   | 
d2d2 e4 d2c2 d2e6 A_1/4Bcd e2A4A2  | \
w:   | 
f6g4a2 a6d4f2 e4 d2c6 c4 z2z2 f4  | 
w:   | 
f2f2 e2d2 c2z2 _7/8e2d2  | g2g^f _7/8edc2 _1/4B2z2 c2B2  | \
w:   |   | 
c2_1/4B3AA4|
w:   | 


